Adwaita++/actions/16/paint-pattern.svg

<svg height="16" width="16" xmlns="http://www.w3.org/2000/svg">
  <path d="m0 6v.4444444l.4444445-.4444444zm2.2222222 0 1.3333333 1.3333334 1.3333334-1.3333334zm1.3333333 1.3333334-2.2222221 2.2222221 2.2222221 2.2222225 2.2222221-2.2222225zm2.2222221 2.2222221 2.2222224 2.2222225 2.222222-2.2222225-2.222222-2.2222221zm2.2222224-2.2222221 1.333334-1.3333334h-2.6666676zm2.222222 2.2222221 2.222223 2.2222225 2.222221-2.2222225-2.222221-2.2222221zm2.222223-2.2222221 1.333333-1.3333334h-2.666667zm2.222221 2.2222221 1.333334 1.3333335v-2.6666668zm-2.222221 2.2222225-2.222223 2.222222 2.222223 2.222222 2.222221-2.222222zm2.222221 2.222222 1.333334 1.333334v-2.666667zm-2.222221 2.222222-2.222223 2.222223 2.222223 2.222221 2.222221-2.222221zm2.222221 2.222223 1.333334 1.333333v-2.666667zm-2.222221 2.222221-1.333334 1.333334h2.666667zm-2.222223-2.222221-2.222222-2.222223-2.2222224 2.222223 2.2222224 2.222221zm-2.222222 2.222221-1.3333336 1.333334h2.6666676zm-2.2222224-2.222221-2.2222221-2.222223-2.2222221 2.222223 2.2222221 2.222221zm-2.2222221 2.222221-1.3333333 1.333334h2.6666667zm-2.2222221-2.222221-1.3333334-1.333334v2.666667zm2.2222221-2.222223 2.2222221-2.222222-2.2222221-2.222222-2.2222221 2.222222zm-2.2222221-2.222222-1.3333334-1.333333v2.666667zm4.4444442 0 2.2222224 2.222222 2.222222-2.222222-2.222222-2.222222zm-4.4444442-4.4444445-1.3333334-1.3333333v2.6666668zm14.2222216-3.5555555.444445.4444444v-.4444444zm-15.555555 15.555555v.444445h.4444445zm16 0-.444445.444445h.444445z" fill="#474747" fill-rule="evenodd" transform="translate(0 -6)"/>
</svg>

<svg xmlns="http://www.w3.org/2000/svg" width="16" height="16" version="1.1">
 <g transform="translate(0,-6)">
  <path style="fill:#474747;fill-rule:evenodd" d="M 0,6 0,6.4444444 0.4444445,6 0,6 Z M 2.2222222,6 3.5555555,7.3333334 4.8888889,6 2.2222222,6 Z M 3.5555555,7.3333334 1.3333334,9.5555555 3.5555555,11.777778 5.7777776,9.5555555 3.5555555,7.3333334 Z M 5.7777776,9.5555555 8,11.777778 10.222222,9.5555555 8,7.3333334 5.7777776,9.5555555 Z M 8,7.3333334 9.333334,6 6.6666664,6 8,7.3333334 Z m 2.222222,2.2222221 2.222223,2.2222225 2.222221,-2.2222225 -2.222221,-2.2222221 -2.222223,2.2222221 z M 12.444445,7.3333334 13.777778,6 11.111111,6 12.444445,7.3333334 Z M 14.666666,9.5555555 16,10.888889 16,8.2222222 14.666666,9.5555555 Z M 12.444445,11.777778 10.222222,14 12.444445,16.222222 14.666666,14 12.444445,11.777778 Z M 14.666666,14 16,15.333334 16,12.666667 14.666666,14 Z m -2.222221,2.222222 -2.222223,2.222223 2.222223,2.222221 2.222221,-2.222221 -2.222221,-2.222223 z M 14.666666,18.444445 16,19.777778 16,17.111111 14.666666,18.444445 Z M 12.444445,20.666666 11.111111,22 13.777778,22 12.444445,20.666666 Z M 10.222222,18.444445 8,16.222222 5.7777776,18.444445 8,20.666666 10.222222,18.444445 Z M 8,20.666666 6.6666664,22 9.333334,22 8,20.666666 Z M 5.7777776,18.444445 3.5555555,16.222222 1.3333334,18.444445 3.5555555,20.666666 5.7777776,18.444445 Z M 3.5555555,20.666666 2.2222222,22 4.8888889,22 3.5555555,20.666666 Z M 1.3333334,18.444445 0,17.111111 0,19.777778 1.3333334,18.444445 Z M 3.5555555,16.222222 5.7777776,14 3.5555555,11.777778 1.3333334,14 3.5555555,16.222222 Z M 1.3333334,14 0,12.666667 0,15.333334 1.3333334,14 Z M 5.7777776,14 8,16.222222 10.222222,14 8,11.777778 5.7777776,14 Z M 1.3333334,9.5555555 0,8.2222222 0,10.888889 1.3333334,9.5555555 Z M 15.555555,6 16,6.4444444 16,6 15.555555,6 Z M 0,21.555555 0,22 0.4444445,22 0,21.555555 Z m 16,0 L 15.555555,22 16,22 16,21.555555 Z"/>
 </g>
</svg>
